icons/git-branch-check-16.svg

<svg width="16" height="16" viewBox="0 0 16 16" fill="none" xmlns="http://www.w3.org/2000/svg">
<path d="M15.26 9.99999C15.4081 10.0023 15.5522 10.0484 15.6742 10.1325C15.7962 10.2165 15.8906 10.3348 15.9455 10.4724C16.0004 10.6099 16.0135 10.7607 15.983 10.9056C15.9524 11.0506 15.8797 11.1833 15.774 11.287L11.217 15.737C11.0754 15.8746 10.8853 15.9509 10.6879 15.9495C10.4904 15.948 10.3015 15.8688 10.162 15.729L8.219 13.779C8.08871 13.6362 8.01853 13.4486 8.02306 13.2553C8.02759 13.062 8.10648 12.8779 8.24331 12.7414C8.38015 12.6048 8.56438 12.5262 8.75767 12.5221C8.95096 12.5179 9.13841 12.5884 9.281 12.719L10.701 14.146L14.727 10.213C14.8695 10.0742 15.0611 9.99762 15.26 9.99999Z" fill="black"/>
<path fill-rule="evenodd" clip-rule="evenodd" d="M11.75 0.999992C12.2811 0.999537 12.7953 1.18697 13.2015 1.52913C13.6077 1.87129 13.8797 2.34611 13.9695 2.86957C14.0593 3.39303 13.9611 3.93138 13.6921 4.38936C13.4232 4.84734 13.0009 5.19541 12.5 5.37199V5.99999C12.5 6.66303 12.2366 7.29892 11.7678 7.76776C11.2989 8.2366 10.663 8.49999 10 8.49999H6C5.73478 8.49999 5.48043 8.60535 5.29289 8.79289C5.10536 8.98042 5 9.23478 5 9.49999V10.628C5.50069 10.8049 5.92271 11.1532 6.19145 11.6112C6.4602 12.0692 6.55837 12.6075 6.46861 13.1308C6.37886 13.6542 6.10695 14.129 5.70096 14.4713C5.29497 14.8136 4.78103 15.0014 4.25 15.0014C3.71897 15.0014 3.20504 14.8136 2.79904 14.4713C2.39305 14.129 2.12115 13.6542 2.03139 13.1308C1.94163 12.6075 2.0398 12.0692 2.30855 11.6112C2.5773 11.1532 2.99931 10.8049 3.5 10.628V5.37199C2.99931 5.19506 2.5773 4.84681 2.30855 4.38881C2.0398 3.9308 1.94163 3.39253 2.03139 2.86914C2.12115 2.34575 2.39305 1.87094 2.79904 1.52865C3.20504 1.18635 3.71897 0.998611 4.25 0.998611C4.78103 0.998611 5.29497 1.18635 5.70096 1.52865C6.10695 1.87094 6.37886 2.34575 6.46861 2.86914C6.55837 3.39253 6.4602 3.9308 6.19145 4.38881C5.92271 4.84681 5.50069 5.19506 5 5.37199V7.20799C5.3154 7.07036 5.65588 6.99954 6 6.99999H10C10.2652 6.99999 10.5196 6.89464 10.7071 6.7071C10.8946 6.51956 11 6.26521 11 5.99999V5.37199C10.5003 5.19437 10.0793 4.84602 9.81136 4.38835C9.5434 3.93069 9.44563 3.39311 9.5353 2.8704C9.62496 2.34769 9.89631 1.87343 10.3015 1.53124C10.7067 1.18905 11.2197 1.00091 11.75 0.999992ZM4.25 12C4.05109 12 3.86032 12.079 3.71967 12.2197C3.57902 12.3603 3.5 12.5511 3.5 12.75C3.5 12.9489 3.57902 13.1397 3.71967 13.2803C3.86032 13.421 4.05109 13.5 4.25 13.5C4.44891 13.5 4.63968 13.421 4.78033 13.2803C4.92098 13.1397 5 12.9489 5 12.75C5 12.5511 4.92098 12.3603 4.78033 12.2197C4.63968 12.079 4.44891 12 4.25 12ZM4.25 2.49999C4.05109 2.49999 3.86032 2.57901 3.71967 2.71966C3.57902 2.86031 3.5 3.05108 3.5 3.24999C3.5 3.4489 3.57902 3.63967 3.71967 3.78032C3.86032 3.92097 4.05109 3.99999 4.25 3.99999C4.44891 3.99999 4.63968 3.92097 4.78033 3.78032C4.92098 3.63967 5 3.4489 5 3.24999C5 3.05108 4.92098 2.86031 4.78033 2.71966C4.63968 2.57901 4.44891 2.49999 4.25 2.49999ZM11.75 2.49999C11.5511 2.49999 11.3603 2.57901 11.2197 2.71966C11.079 2.86031 11 3.05108 11 3.24999C11 3.4489 11.079 3.63967 11.2197 3.78032C11.3603 3.92097 11.5511 3.99999 11.75 3.99999C11.9489 3.99999 12.1397 3.92097 12.2803 3.78032C12.421 3.63967 12.5 3.4489 12.5 3.24999C12.5 3.05108 12.421 2.86031 12.2803 2.71966C12.1397 2.57901 11.9489 2.49999 11.75 2.49999Z" fill="black"/>
</svg>

<svg xmlns="http://www.w3.org/2000/svg" width="16" height="16" viewBox="0 0 16 16"><path d="M15.26 10a.741.741 0 0 1 .414.133.75.75 0 0 1 .1 1.154l-4.557 4.45a.753.753 0 0 1-1.055-.008l-1.943-1.95a.755.755 0 0 1 .024-1.038.753.753 0 0 1 1.038-.022l1.42 1.427 4.026-3.933A.752.752 0 0 1 15.26 10Zm-3.51-9a2.252 2.252 0 0 1 1.942 3.389 2.252 2.252 0 0 1-1.192.983V6A2.5 2.5 0 0 1 10 8.5H6a.997.997 0 0 0-1 1v1.128a2.256 2.256 0 0 1 1.469 2.503A2.252 2.252 0 1 1 3.5 10.628V5.372a2.255 2.255 0 0 1-1.469-2.503A2.252 2.252 0 1 1 5 5.372v1.836A2.493 2.493 0 0 1 6 7h4a.997.997 0 0 0 1-1v-.628A2.252 2.252 0 0 1 11.75 1Zm-7.5 1.5a.747.747 0 0 0-.53.22.747.747 0 0 0 0 1.06.747.747 0 0 0 1.06 0 .747.747 0 0 0 0-1.06.747.747 0 0 0-.53-.22Zm0 9.5a.747.747 0 0 0-.53.22.747.747 0 0 0 0 1.06.747.747 0 0 0 1.06 0 .747.747 0 0 0 0-1.06.747.747 0 0 0-.53-.22Zm7.5-9.5a.747.747 0 0 0-.53.22.747.747 0 0 0 0 1.06.747.747 0 0 0 1.06 0 .747.747 0 0 0 0-1.06.747.747 0 0 0-.53-.22Z"/></svg>
